easy/AttentionSign.svg

<svg xmlns:bx="https://boxy-svg.com" viewBox="204.296 39.367 253.577 247.966" xmlns="http://www.w3.org/2000/svg"><path bx:shape="triangle 338.665 199.473 249.544 239.406 0.5 0.139 1@27bf6799" d="M446.094 232.75q17.343-33.277 34.686 0l90.086 172.852q17.343 33.277-17.344 33.277h-180.17q-34.687 0-17.344-33.277Z" style="fill:#a00434;stroke:#781734" transform="rotate(.081 156880.585 -127380.127)"/><g data-name="Group 179"><path stroke-miterlimit="10" d="M-933.989 59.885c-18.122 28.143-2.349 89.832.605 91.75 5.608 3.64 39.709-4.551 40.412-11.196.417-3.932-23.074-89.532-41.018-80.554" data-name="Path 359" style="stroke-opacity:1;stroke-width:1.71085px;fill:#fff;stroke:#781734" transform="matrix(-.8967 -.22058 .1942 -1.0091 -518.515 64.516)"/></g><g data-name="Group 179"><path stroke-miterlimit="10" d="M-682.093 15.884c-29.34 11.505-15.489 35.388.888 31.008 15.273-4.085 26.174-28.356-3.245-30.868" data-name="Path 359" style="stroke-opacity:1;stroke-width:2.99215px;fill:#fff;stroke:#781734" transform="matrix(.57211 .31073 -.3912 .67906 733.657 434.331)"/></g></svg>

<?xml version="1.0" encoding="utf-8"?>
<svg viewBox="204.296 39.367 253.577 247.966" xmlns="http://www.w3.org/2000/svg" xmlns:bx="https://boxy-svg.com">
  <path d="M 446.094 232.75 Q 463.437 199.473 480.78 232.75 L 570.866 405.602 Q 588.209 438.879 553.522 438.879 L 373.352 438.879 Q 338.665 438.879 356.008 405.602 Z" style="fill: rgb(160, 4, 52); stroke: rgb(120, 23, 52);" transform="matrix(0.999999, 0.001043, -0.001043, 0.999999, -132.700592, -163.75383)" bx:shape="triangle 338.665 199.473 249.544 239.406 0.5 0.139 1@27bf6799"/>
  <polyline style="fill: rgb(216, 216, 216); stroke: rgb(0, 0, 0);" points="510.455 -75.258" transform="matrix(1, 0, 0, 1, 21.93804, 259.874029)"/>
  <g id="Group_179" data-name="Group 179" transform="matrix(0.917905, 0.011399, -0.012819, 1.03229, 1168.777954, 61.282005)" style="">
    <path id="Path_359" data-name="Path 359" d="M -933.989 59.885 C -952.111 88.028 -936.338 149.717 -933.384 151.635 C -927.776 155.275 -893.675 147.084 -892.972 140.439 C -892.555 136.507 -916.046 50.907 -933.99 59.885" stroke-miterlimit="10" style="stroke-opacity: 1; stroke-width: 1.71085px; fill: rgb(255, 255, 255); stroke: rgb(120, 23, 52);" transform="matrix(-0.979723, -0.202865, 0.19788, -0.979723, -1837.872304, 23.427589)"/>
    <path id="Path_364" data-name="Path 364" d="M-976.144,187.328" transform="translate(14.545 19.262)" stroke-width="1" style="fill: rgb(255, 255, 255); stroke: rgb(120, 23, 52);"/>
  </g>
  <g id="g-1" data-name="Group 179" transform="matrix(-0.544693, -0.355413, 0.428546, -0.656775, 213.27597, 174.110687)" style="">
    <path id="path-2" data-name="Path 364" d="M-976.144,187.328" transform="translate(14.545 19.262)" fill="none" stroke="#e79e17" stroke-width="1"/>
    <path id="path-1" data-name="Path 359" d="M -682.093 15.884 C -711.433 27.389 -697.582 51.272 -681.205 46.892 C -665.932 42.807 -655.031 18.536 -684.45 16.024" stroke-miterlimit="10" style="stroke-opacity: 1; stroke-width: 2.99215px; fill: rgb(255, 255, 255); stroke: rgb(120, 23, 52);" transform="matrix(-0.997766, 0.06682, -0.06682, -0.997766, -888.713553, 84.716692)"/>
  </g>
</svg>
